X: 21061
T: PAIN'S FIRST SET OF QUADRILLES #1
B: K\"ohler's Violin Repository, v.2, 1885 p.106 #1
F: http://www.archive.org/details/klersviolinrepos02rugg
Z: 2012 John Chambers <jc:trillian.mit.edu>
M: 6/8
L: 1/8
K: D
uAAA !segno!|\
(d2c) (d2e) | (f2e) (d2c) | B2e (dc)a | gfe d2A/A/ |\
(d2c) (d2e) | (f2e) (d2c) | Bed {d}cBc | d3 ||
ufga |\
(.a2.g) efg | (.g2.f) agf | efe (.[e2B2].[eB]) | (.[e2c2].[ec]) fga |\
(.a2.g) efg | (.g2.f) (d/e/f/g/a/f/) | eae dcB | A3 (A/c/B/d/c/e/) !segno!||
uAAA |\
d3 =f3 | eg=f e^cd | e3 g3 | eag =fed |\
^cAe dA=f | eAg =fAg | =fag fed | a3 "_D.C."|]

%%sep 2 1 500

